X:11068
T:Mon amant de Saint Jean
C:Trad 1, 78
M:3/4
L:1/4
K:C
AB|:ccc|cBA|c3-|cBc|d3-|dcB|c/B/A2-|\
AAB|ccc|cBA|f3|def|e2d|c2B|A3-|AzA||
ecA|ecA|ee2-|e2e|fff|def|e3-|ezA|\
BBB|B2B|ccc|c2c|cBc|dcd|e3-|e2z|
e3|cBA|e3|cBA|e^de|agf|e3-|e2z|\
d3|Bcd|c3|ABc|B3|^GcB|A3-|A3:|
